X: 3309
T: The ASH GROVE
%R: waltz, air
B: James Kerr "Merry Melodies" v.3 p.33 #309
Z: 2016 John Chambers <jc:trillian.mit.edu>
M: 3/4
L: 1/4
K: G
uD |\
GBd | BGG | AcA | FDD |\
GBG | ECE | DGF | Gzu D |\
GBd | BGG | AcA | FDD |\
GBG | ECE | DGF | Gzu |]
D |\
GBd | dcB | Acc | cBA |\
GBB | BAG | Fd^c | dz D |\
GBd | BGG | AcA | FDD |\
GBG | ECE | "_D.C. to Allegro."DGF | Gzu |]

%%sep 1 1 500
%%sep 1 1 500

